X: 4255
T: The HOUSE OF GRAY
%R: jig
B: James Kerr "Merry Melodies" v.4 p.28 #255
Z: 2016 John Chambers <jc:trillian.mit.edu>
M: 6/8
L: 1/8
K: Ador
e |\
AAA c2e | dBG dBG | AAA c2d | ece ecA |\
gag f2e | dBg dBG | AAA cde | dBG A2 :|
|: B |\
ccc g2c | ece dBG | ccc g2c | ece geg |\
aga g2e | dBg dBG | AAA cde | dBG A2 :|

%%sep 1 1 500
%%sep 1 1 500

